X: 1
T: The Steampacket
R: reel
M: 4/4
L: 1/8
K: Gmaj
|G2 BG AGFG|AG (3GGG Addc|ABGB AFDE|FEFG ABcA|
(3GGG BG AGFG|AG (3GGG Addc|ABGB AFDE|FEFG ABcA||
|d~g3 a~g3|d~g3 fdcA|d~g3 a~g3|d^cde fd=cA|
|d~g3 ag (3efg|abag ~f3g|af (3gfe fde^c|d2 eg fdcA||


Tune 690	Setting 13744

